X:385
T: Joe K's
C: B.Black
M: 6/8
L: 1/8
R: jig
Q: 325
K: D
D|DFA BAF|DGB dBG|DFA BAF|EGF EDC|
DFA BAF|GAB cBc|dAF GFE|FDD D2 :|
e|fdB ABc|dFE D2e|fdB gec|dcB AFA|
fdf gfg|agf gfe|fed cAG|FDD D2 :|
